; generated by PrusaSlicer 2.3.2+win64 on 2021-07-09 at 07:02:31 UTC

; 

; external perimeters extrusion width = 0.60mm
; perimeters extrusion width = 0.50mm
; infill extrusion width = 0.50mm
; solid infill extrusion width = 0.50mm
; top infill extrusion width = 0.45mm
; first layer extrusion width = 0.42mm

M73 P0 R93
M73 Q0 S95
M201 X1000 Y1000 Z200 E5000 ; sets maximum accelerations, mm/sec^2
M203 X200 Y200 Z12 E120 ; sets maximum feedrates, mm/sec
M204 P1250 R1250 T1250 ; sets acceleration (P, T) and retract acceleration (R), mm/sec^2
M205 X8.00 Y8.00 Z0.40 E4.50 ; sets the jerk limits, mm/sec
M205 S0 T0 ; sets the minimum extruding and travel feed rate, mm/sec
M107
;TYPE:Custom
M862.3 P "MK3S" ; printer model check
M862.1 P0.4 ; nozzle diameter check
M115 U3.10.0 ; tell printer latest fw version
G90 ; use absolute coordinates
M83 ; extruder relative mode
M104 S215 ; set extruder temp
M140 S60 ; set bed temp
M190 S60 ; wait for bed temp
M109 S215 ; wait for extruder temp
G28 W ; home all without mesh bed level
G80 ; mesh bed leveling
G1 Y-3.0 F1000.0 ; go outside print area
G92 E0.0
G1 X60.0 E9.0 F1000.0 ; intro line
G1 X100.0 E12.5 F1000.0 ; intro line
G92 E0.0
M221 S95

; Don't change E values below. Excessive value can damage the printer.

M907 E538 ; set extruder motor current
G21 ; set units to millimeters
G90 ; use absolute coordinates
M83 ; use relative distances for extrusion
M900 K0.05 ; Filament gcode LA 1.5
M900 K30 ; Filament gcode LA 1.0
;LAYER_CHANGE
;Z:0.2
;HEIGHT:0.2
;BEFORE_LAYER_CHANGE
G92 E0.0
;0.2


G1 E-0.80000 F2100.000
G1 Z0.400 F10800.000
;AFTER_LAYER_CHANGE
;0.2
G1 X87.303 Y44.943
G1 Z0.200
G1 E0.80000 F2100.000
M204 S1000
;TYPE:Skirt
;WIDTH:0.42
G1 F1200.000
G1 X88.268 Y44.184 E0.03850
G1 X89.038 Y43.784 E0.02721
G1 X89.843 Y43.527 E0.02650
G1 X91.019 Y43.374 E0.03719
G1 X158.904 Y43.373 E2.12848
M73 P0 R92
G1 X159.948 Y43.476 E0.03290
G1 X160.953 Y43.780 E0.03293
G1 X161.883 Y44.276 E0.03305
G1 X162.688 Y44.934 E0.03258
G1 X163.366 Y45.755 E0.03341
G1 X163.859 Y46.670 E0.03258
G1 X164.169 Y47.678 E0.03305
G1 X164.275 Y48.661 E0.03103
G1 X164.277 Y161.269 E3.53073
G1 X164.125 Y162.498 E0.03882
G1 X163.865 Y163.314 E0.02685
G1 X163.454 Y164.104 E0.02793
G1 X162.697 Y165.057 E0.03815
G1 X161.729 Y165.818 E0.03862
G1 X160.962 Y166.216 E0.02709
G1 X160.150 Y166.475 E0.02673
G1 X158.954 Y166.626 E0.03778
G1 X91.073 Y166.627 E2.12836
M73 Q0 S94
G1 X89.849 Y166.474 E0.03870
G1 X89.033 Y166.214 E0.02685
G1 X88.246 Y165.804 E0.02781
G1 X87.293 Y165.047 E0.03815
G1 X86.530 Y164.076 E0.03873
G1 X86.133 Y163.309 E0.02709
G1 X85.874 Y162.496 E0.02674
G1 X85.723 Y161.281 E0.03838
G1 X85.723 Y48.731 E3.52894
G1 X85.875 Y47.502 E0.03882
G1 X86.135 Y46.686 E0.02685
G1 X86.546 Y45.896 E0.02793
G1 X87.265 Y44.990 E0.03627
; printing object CaseTop.stl id:1 copy 0
;WIPE_START
G1 F8640.000
G1 X88.268 Y44.184 E-0.29701
G1 X89.038 Y43.784 E-0.20040
G1 X89.843 Y43.527 E-0.19512
G1 X90.133 Y43.490 E-0.06747
;WIPE_END
G1 E-0.04000 F2100.000
G1 Z0.600 F10800.000
G1 X112.542 Y78.165
G1 Z0.200
G1 E0.80000 F2100.000
;TYPE:Perimeter
G1 F1200.000
G1 X157.241 Y78.165 E1.40149
G1 X157.204 Y83.239 E0.15910
G1 X113.843 Y83.239 E1.35957
G1 X112.557 Y78.223 E0.16236
G1 X113.028 Y78.542 F10800.000
;TYPE:External perimeter
G1 F1200.000
G1 X156.861 Y78.542 E1.37435
G1 X156.830 Y82.862 E0.13545
G1 X114.135 Y82.862 E1.33866
G1 X113.043 Y78.600 E0.13795
G1 X112.839 Y78.189 F10800.000
;WIPE_START
G1 F8640.000
G1 X116.334 Y78.595 E-0.76000
;WIPE_END
G1 E-0.04000 F2100.000
G1 Z0.600 F10800.000
G1 X114.087 Y84.227
G1 Z0.200
G1 E0.80000 F2100.000
;TYPE:Perimeter
G1 F1200.000
G1 X157.197 Y84.227 E1.35169
G1 X157.161 Y89.301 E0.15910
G1 X115.186 Y89.301 E1.31607
G1 X114.699 Y86.955 E0.07515
G1 X114.100 Y84.286 E0.08577
G1 X114.558 Y84.604 F10800.000
;TYPE:External perimeter
G1 F1200.000
G1 X156.817 Y84.604 E1.32501
G1 X156.786 Y88.924 E0.13545
G1 X115.493 Y88.924 E1.29471
G1 X115.068 Y86.875 E0.06562
G1 X114.571 Y84.663 E0.07109
G1 X114.530 Y84.205 F10800.000
;WIPE_START
G1 F8640.000
G1 X117.863 Y84.658 E-0.76000
;WIPE_END
G1 E-0.04000 F2100.000
G1 Z0.600 F10800.000
G1 X115.380 Y90.290
G1 Z0.200
G1 E0.80000 F2100.000
;TYPE:Perimeter
G1 F1200.000
G1 X157.153 Y90.290 E1.30978
G1 X157.117 Y95.364 E0.15910
G1 X116.031 Y95.364 E1.28822
G1 X115.771 Y92.972 E0.07543
G1 X115.388 Y90.349 E0.08311
G1 X115.816 Y90.667 F10800.000
;TYPE:External perimeter
G1 F1200.000
G1 X156.774 Y90.667 E1.28420
G1 X156.743 Y94.987 E0.13545
G1 X116.369 Y94.987 E1.26587
M73 P1 R92
G1 X116.145 Y92.924 E0.06504
G1 X115.824 Y90.726 E0.06966
G1 X115.799 Y90.267 F10800.000
;WIPE_START
M73 Q1 S94
G1 F8640.000
G1 X119.116 Y90.721 E-0.76000
;WIPE_END
G1 E-0.04000 F2100.000
G1 Z0.600 F10800.000
G1 X116.088 Y96.652
G1 Z0.200
G1 E0.80000 F2100.000
;TYPE:Perimeter
G1 F1200.000
G1 X157.102 Y96.652 E1.28597
G1 X157.102 Y101.726 E0.15910
G1 X116.088 Y101.726 E1.28597
G1 X116.088 Y96.712 E0.15722
G1 X116.465 Y97.029 F10800.000
;TYPE:External perimeter
G1 F1200.000
G1 X156.725 Y97.029 E1.26232
G1 X156.725 Y101.349 E0.13545
G1 X116.465 Y101.349 E1.26232
G1 X116.465 Y97.089 E0.13357
G1 X116.277 Y96.676 F10800.000
;WIPE_START
G1 F8640.000
G1 X119.756 Y97.084 E-0.76000
;WIPE_END
G1 E-0.04000 F2100.000
G1 Z0.600 F10800.000
G1 X110.913 Y72.102
G1 Z0.200
G1 E0.80000 F2100.000
;TYPE:Perimeter
G1 F1200.000
G1 X157.284 Y72.102 E1.45392
G1 X157.248 Y77.176 E0.15910
G1 X112.272 Y77.176 E1.41017
M73 P1 R91
G1 X110.929 Y72.160 E0.16282
G1 X111.405 Y72.479 F10800.000
;TYPE:External perimeter
G1 F1200.000
G1 X156.904 Y72.479 E1.42661
G1 X156.873 Y76.799 E0.13545
G1 X112.562 Y76.799 E1.38936
G1 X111.420 Y72.537 E0.13834
G1 X111.216 Y72.127 F10800.000
;WIPE_START
G1 F8640.000
G1 X114.712 Y72.533 E-0.76000
;WIPE_END
M73 Q1 S93
G1 E-0.04000 F2100.000
G1 Z0.600 F10800.000
G1 X109.355 Y66.040
G1 Z0.200
G1 E0.80000 F2100.000
;TYPE:Perimeter
G1 F1200.000
G1 X157.328 Y66.040 E1.50416
G1 X157.291 Y71.114 E0.15910
G1 X110.649 Y71.114 E1.46243
G1 X109.369 Y66.098 E0.16231
G1 X109.840 Y66.417 F10800.000
;TYPE:External perimeter
G1 F1200.000
G1 X156.948 Y66.417 E1.47703
G1 X156.917 Y70.737 E0.13545
G1 X110.942 Y70.737 E1.44151
G1 X109.855 Y66.475 E0.13791
G1 X109.651 Y66.064 F10800.000
;WIPE_START
G1 F8640.000
G1 X113.146 Y66.471 E-0.76000
;WIPE_END
G1 E-0.04000 F2100.000
G1 Z0.600 F10800.000
G1 X108.046 Y59.977
G1 Z0.200
G1 E0.80000 F2100.000
;TYPE:Perimeter
G1 F1200.000
G1 X157.371 Y59.977 E1.54656
G1 X157.335 Y65.051 E0.15910
G1 X109.124 Y65.051 E1.51161
G1 X108.592 Y62.653 E0.07702
G1 X108.058 Y60.036 E0.08376
G1 X108.508 Y60.354 F10800.000
;TYPE:External perimeter
G1 F1200.000
G1 X156.991 Y60.354 E1.52017
G1 X156.960 Y64.674 E0.13545
G1 X109.427 Y64.674 E1.49038
G1 X108.961 Y62.575 E0.06743
G1 X108.520 Y60.413 E0.06917
G1 X108.480 Y59.955 F10800.000
;WIPE_START
G1 F8640.000
G1 X111.811 Y60.409 E-0.76000
;WIPE_END
G1 E-0.04000 F2100.000
G1 Z0.600 F10800.000
G1 X107.262 Y53.915
G1 Z0.200
G1 E0.80000 F2100.000
;TYPE:Perimeter
G1 F1200.000
G1 X157.415 Y53.915 E1.57251
G1 X157.378 Y58.989 E0.15910
G1 X107.873 Y58.989 E1.55220
G1 X107.525 Y56.501 E0.07877
G1 X107.268 Y53.974 E0.07963
G1 X107.679 Y54.292 F10800.000
;TYPE:External perimeter
G1 F1200.000
G1 X157.035 Y54.292 E1.54751
G1 X157.004 Y58.612 E0.13545
G1 X108.201 Y58.612 E1.53018
G1 X107.899 Y56.456 E0.06826
G1 X107.685 Y54.351 E0.06632
G1 X107.663 Y53.892 F10800.000
;WIPE_START
G1 F8640.000
G1 X110.977 Y54.347 E-0.76000
;WIPE_END
G1 E-0.04000 F2100.000
G1 Z0.600 F10800.000
G1 X107.233 Y47.852
G1 Z0.200
G1 E0.80000 F2100.000
;TYPE:Perimeter
G1 F1200.000
G1 X157.427 Y47.852 E1.57380
M73 P2 R91
M73 Q2 S93
G1 X157.427 Y52.926 E0.15910
G1 X107.233 Y52.926 E1.57380
G1 X107.233 Y47.912 E0.15722
G1 X107.610 Y48.229 F10800.000
;TYPE:External perimeter
G1 F1200.000
G1 X157.050 Y48.229 E1.55016
G1 X157.050 Y52.549 E0.13545
G1 X107.610 Y52.549 E1.55016
G1 X107.610 Y48.289 E0.13357
G1 X107.421 Y47.877 F10800.000
;WIPE_START
G1 F8640.000
G1 X110.902 Y48.285 E-0.76000
;WIPE_END
G1 E-0.04000 F2100.000
G1 Z0.600 F10800.000
G1 X90.728 Y46.878
G1 Z0.200
G1 E0.80000 F2100.000
;TYPE:Perimeter
G1 F1200.000
G1 X91.139 Y46.837 E0.01295
G1 X158.861 Y46.837 E2.12340
G1 X159.272 Y46.878 E0.01295
G1 X159.631 Y46.986 E0.01173
G1 X159.961 Y47.163 E0.01173
G1 X160.250 Y47.400 E0.01173
G1 X160.487 Y47.689 E0.01173
G1 X160.664 Y48.019 E0.01173
G1 X160.772 Y48.378 E0.01173
G1 X160.813 Y48.789 E0.01295
G1 X160.813 Y101.211 E1.64368
G1 X160.772 Y101.622 E0.01295
G1 X160.664 Y101.981 E0.01173
G1 X160.487 Y102.311 E0.01173
G1 X160.250 Y102.600 E0.01173
G1 X159.961 Y102.837 E0.01173
G1 X159.631 Y103.014 E0.01173
G1 X159.272 Y103.122 E0.01173
G1 X158.861 Y103.163 E0.01295
G1 X91.139 Y103.163 E2.12340
M73 P2 R90
G1 X90.728 Y103.122 E0.01295
G1 X90.369 Y103.014 E0.01173
G1 X90.039 Y102.837 E0.01173
G1 X89.750 Y102.600 E0.01173
G1 X89.513 Y102.311 E0.01173
G1 X89.336 Y101.981 E0.01173
G1 X89.228 Y101.622 E0.01173
G1 X89.187 Y101.211 E0.01295
G1 X89.187 Y48.789 E1.64368
G1 X89.228 Y48.378 E0.01295
G1 X89.336 Y48.019 E0.01173
G1 X89.513 Y47.689 E0.01173
G1 X89.750 Y47.400 E0.01173
G1 X90.039 Y47.163 E0.01173
G1 X90.369 Y46.986 E0.01173
G1 X90.670 Y46.895 E0.00985
G1 X90.654 Y46.506 F10800.000
;TYPE:External perimeter
G1 F1200.000
G1 X91.120 Y46.460 E0.01470
G1 X158.880 Y46.460 E2.12456
M73 Q2 S92
G1 X159.346 Y46.506 E0.01470
G1 X159.776 Y46.636 E0.01406
G1 X160.171 Y46.848 E0.01406
G1 X160.518 Y47.132 E0.01406
G1 X160.802 Y47.479 E0.01406
G1 X161.014 Y47.874 E0.01406
G1 X161.144 Y48.304 E0.01406
G1 X161.190 Y48.770 E0.01470
G1 X161.190 Y101.230 E1.64484
G1 X161.144 Y101.696 E0.01470
G1 X161.014 Y102.126 E0.01406
G1 X160.802 Y102.521 E0.01406
G1 X160.518 Y102.868 E0.01406
G1 X160.171 Y103.152 E0.01406
G1 X159.776 Y103.364 E0.01406
G1 X159.346 Y103.494 E0.01406
G1 X158.880 Y103.540 E0.01470
G1 X91.120 Y103.540 E2.12456
G1 X90.654 Y103.494 E0.01470
G1 X90.224 Y103.364 E0.01406
G1 X89.829 Y103.152 E0.01406
G1 X89.482 Y102.868 E0.01406
G1 X89.198 Y102.521 E0.01406
G1 X88.986 Y102.126 E0.01406
G1 X88.856 Y101.696 E0.01406
G1 X88.810 Y101.230 E0.01470
G1 X88.810 Y48.770 E1.64484
G1 X88.856 Y48.304 E0.01470
G1 X88.986 Y47.874 E0.01406
G1 X89.198 Y47.479 E0.01406
G1 X89.482 Y47.132 E0.01406
G1 X89.829 Y46.848 E0.01406
G1 X90.224 Y46.636 E0.01406
G1 X90.596 Y46.523 E0.01218
G1 X90.917 Y46.807 F10800.000
;WIPE_START
G1 F8640.000
G1 X91.120 Y46.460 E-0.12186
G1 X93.884 Y46.460 E-0.63814
;WIPE_END
G1 E-0.04000 F2100.000
G1 Z0.600 F10800.000
G1 X160.699 Y48.784
G1 Z0.200
G1 E0.80000 F2100.000
;TYPE:Solid infill
;WIDTH:0.42034
G1 F1200.000
G1 X159.056 Y47.140 E0.07292
G1 X158.512 Y47.130 E0.01707
G1 X160.530 Y49.149 E0.08957
G1 X160.530 Y49.682 E0.01675
G1 X157.978 Y47.130 E0.11326
G1 X157.444 Y47.130 E0.01675
G1 X160.530 Y50.216 E0.13696
G1 X160.530 Y50.750 E0.01675
G1 X157.710 Y47.930 E0.12515
G1 X157.710 Y47.569 E0.01132
G1 X157.350 Y47.569 E0.01132
G1 X156.741 Y46.960 E0.02702
G1 X156.985 Y47.739 F10800.000
G1 F1200.000
G1 X156.377 Y47.130 E0.02702
G1 X155.843 Y47.130 E0.01675
G1 X156.282 Y47.569 E0.01950
G1 X155.748 Y47.569 E0.01675
G1 X155.309 Y47.130 E0.01950
G1 X154.775 Y47.130 E0.01675
G1 X155.215 Y47.569 E0.01950
G1 X154.681 Y47.569 E0.01675
G1 X154.241 Y47.130 E0.01951
G1 X153.707 Y47.130 E0.01675
G1 X154.147 Y47.569 E0.01951
G1 X153.613 Y47.569 E0.01675
G1 X153.174 Y47.130 E0.01952
G1 X152.640 Y47.130 E0.01675
G1 X153.080 Y47.569 E0.01952
G1 X152.546 Y47.569 E0.01675
G1 X152.106 Y47.129 E0.01952
G1 X151.572 Y47.129 E0.01675
G1 X152.012 Y47.569 E0.01953
G1 X151.478 Y47.569 E0.01675
G1 X151.038 Y47.129 E0.01953
G1 X150.504 Y47.129 E0.01675
G1 X150.945 Y47.569 E0.01953
G1 X150.411 Y47.569 E0.01675
G1 X149.971 Y47.129 E0.01954
G1 X149.437 Y47.129 E0.01675
G1 X149.877 Y47.569 E0.01954
G1 X149.343 Y47.569 E0.01675
G1 X148.903 Y47.129 E0.01955
G1 X148.369 Y47.129 E0.01675
G1 X148.810 Y47.569 E0.01955
G1 X148.276 Y47.569 E0.01675
G1 X147.835 Y47.129 E0.01955
G1 X147.301 Y47.129 E0.01675
G1 X147.742 Y47.569 E0.01956
G1 X147.208 Y47.569 E0.01675
G1 X146.768 Y47.129 E0.01956
G1 X146.234 Y47.129 E0.01675
G1 X146.675 Y47.569 E0.01956
G1 X146.141 Y47.569 E0.01675
G1 X145.700 Y47.128 E0.01957
G1 X145.166 Y47.128 E0.01675
G1 X145.607 Y47.569 E0.01957
G1 X145.073 Y47.569 E0.01675
G1 X144.632 Y47.128 E0.01958
G1 X144.098 Y47.128 E0.01675
G1 X144.539 Y47.569 E0.01958
G1 X144.006 Y47.569 E0.01675
G1 X143.565 Y47.128 E0.01958
G1 X143.031 Y47.128 E0.01675
G1 X143.472 Y47.569 E0.01959
G1 X142.938 Y47.569 E0.01675
G1 X142.497 Y47.128 E0.01959
G1 X141.963 Y47.128 E0.01675
G1 X142.404 Y47.569 E0.01959
G1 X141.871 Y47.569 E0.01675
G1 X141.429 Y47.128 E0.01960
G1 X140.895 Y47.128 E0.01675
G1 X141.337 Y47.569 E0.01960
G1 X140.803 Y47.569 E0.01675
G1 X140.361 Y47.128 E0.01961
G1 X139.828 Y47.128 E0.01675
G1 X140.269 Y47.569 E0.01961
G1 X139.736 Y47.569 E0.01675
G1 X139.294 Y47.127 E0.01961
G1 X138.760 Y47.127 E0.01675
G1 X139.202 Y47.569 E0.01962
G1 X138.668 Y47.569 E0.01675
G1 X138.226 Y47.127 E0.01962
G1 X137.692 Y47.127 E0.01675
G1 X138.134 Y47.569 E0.01962
G1 X137.601 Y47.569 E0.01675
G1 X137.158 Y47.127 E0.01963
G1 X136.625 Y47.127 E0.01675
G1 X137.067 Y47.569 E0.01963
G1 X136.533 Y47.569 E0.01675
G1 X136.091 Y47.127 E0.01963
G1 X135.557 Y47.127 E0.01675
G1 X135.999 Y47.569 E0.01964
G1 X135.466 Y47.569 E0.01675
G1 X135.023 Y47.127 E0.01964
G1 X134.489 Y47.127 E0.01675
G1 X134.932 Y47.569 E0.01965
G1 X134.398 Y47.569 E0.01675
G1 X133.955 Y47.127 E0.01965
G1 X133.422 Y47.126 E0.01675
G1 X133.864 Y47.569 E0.01965
G1 X133.331 Y47.569 E0.01675
G1 X132.888 Y47.126 E0.01966
G1 X132.354 Y47.126 E0.01675
G1 X132.797 Y47.569 E0.01966
G1 X132.263 Y47.569 E0.01675
G1 X131.820 Y47.126 E0.01966
G1 X131.286 Y47.126 E0.01675
G1 X131.729 Y47.569 E0.01967
G1 X131.196 Y47.569 E0.01675
G1 X130.752 Y47.126 E0.01967
G1 X130.219 Y47.126 E0.01675
G1 X130.662 Y47.569 E0.01968
G1 X130.128 Y47.569 E0.01675
G1 X129.685 Y47.126 E0.01968
G1 X129.151 Y47.126 E0.01675
G1 X129.594 Y47.569 E0.01968
G1 X129.061 Y47.569 E0.01675
G1 X128.617 Y47.126 E0.01969
G1 X128.083 Y47.126 E0.01675
G1 X128.527 Y47.569 E0.01969
G1 X127.993 Y47.569 E0.01675
G1 X127.549 Y47.126 E0.01969
G1 X127.016 Y47.125 E0.01675
G1 X127.459 Y47.569 E0.01970
G1 X126.926 Y47.569 E0.01675
G1 X126.482 Y47.125 E0.01970
G1 X125.948 Y47.125 E0.01675
G1 X126.392 Y47.569 E0.01971
G1 X125.858 Y47.569 E0.01675
G1 X125.414 Y47.125 E0.01971
G1 X124.880 Y47.125 E0.01675
G1 X125.324 Y47.569 E0.01971
G1 X124.791 Y47.569 E0.01675
G1 X124.346 Y47.125 E0.01972
G1 X123.813 Y47.125 E0.01675
G1 X124.257 Y47.569 E0.01972
G1 X123.723 Y47.569 E0.01675
G1 X123.279 Y47.125 E0.01972
G1 X122.745 Y47.125 E0.01675
G1 X123.189 Y47.569 E0.01973
G1 X122.656 Y47.569 E0.01675
G1 X122.211 Y47.125 E0.01973
G1 X121.677 Y47.125 E0.01675
G1 X122.122 Y47.569 E0.01973
G1 X121.588 Y47.569 E0.01675
G1 X121.143 Y47.125 E0.01974
G1 X120.610 Y47.124 E0.01675
G1 X121.054 Y47.569 E0.01974
G1 X120.521 Y47.569 E0.01675
G1 X120.076 Y47.124 E0.01975
G1 X119.542 Y47.124 E0.01675
G1 X119.987 Y47.569 E0.01975
G1 X119.453 Y47.569 E0.01675
G1 X119.008 Y47.124 E0.01975
G1 X118.474 Y47.124 E0.01675
G1 X118.919 Y47.569 E0.01976
G1 X118.386 Y47.569 E0.01675
G1 X117.940 Y47.124 E0.01976
G1 X117.407 Y47.124 E0.01675
G1 X117.852 Y47.569 E0.01976
G1 X117.318 Y47.569 E0.01675
G1 X116.873 Y47.124 E0.01977
G1 X116.339 Y47.124 E0.01675
G1 X116.784 Y47.569 E0.01977
G1 X116.251 Y47.569 E0.01675
G1 X115.805 Y47.124 E0.01978
G1 X115.271 Y47.124 E0.01675
G1 X115.717 Y47.569 E0.01978
G1 X115.183 Y47.569 E0.01675
G1 X114.737 Y47.124 E0.01978
G1 X114.204 Y47.123 E0.01675
G1 X114.649 Y47.569 E0.01979
G1 X114.116 Y47.569 E0.01675
G1 X113.670 Y47.123 E0.01979
G1 X113.136 Y47.123 E0.01675
G1 X113.582 Y47.569 E0.01979
G1 X113.048 Y47.569 E0.01675
G1 X112.602 Y47.123 E0.01980
G1 X112.068 Y47.123 E0.01675
G1 X112.514 Y47.569 E0.01980
G1 X111.981 Y47.569 E0.01675
G1 X111.534 Y47.123 E0.01981
G1 X111.001 Y47.123 E0.01675
G1 X111.447 Y47.569 E0.01981
G1 X110.913 Y47.569 E0.01675
G1 X110.467 Y47.123 E0.01981
G1 X109.933 Y47.123 E0.01675
